SVG-Logos/Observability/Grafana/grafana-labs-icon-white-bg.svg

<svg xmlns="http://www.w3.org/2000/svg" width="64" height="64" viewBox="0 0 64 64" fill="none"><g clip-path="url(#clip0_7838_654)"><path d="M32 64c17.6731.0 32-14.3269 32-32C64 14.3269 49.6731.0 32 0 14.3269.0.0 14.3269.0 32S14.3269 64 32 64z" fill="#f4f4f6"/><path opacity=".1" d="M30.4229 54.0412c9.417.0 17.051-.8962 17.051-2.0018s-7.634-2.0018-17.051-2.0018c-9.4169.0-17.0508.8962-17.0508 2.0018s7.6339 2.0018 17.0508 2.0018z" fill="#080821"/><path d="M52.3166 34.7114C53.5867 33.9121 55.7947 32.8617 56.8455 34.7115c1.0506 1.8499-3.4976 5.5911-6.8543 6.3618" fill="#f99f10"/><path d="M52.3166 34.7114C53.5867 33.9121 55.7947 32.8617 56.8455 34.7115c1.0506 1.8499-3.4976 5.5911-6.8543 6.3618" stroke="#3a1103" stroke-width=".672982" stroke-miterlimit="10" stroke-linecap="round"/><path d="M27.2721 15.6234c-4.0952-2.8552-9.335-3.4958-10.2566-2.471C16.2679 13.9826 19.0921 18.5301 18.6345 19.859 18.1782 21.1881 14.1719 20.3283 13.7337 22.0182 13.5261 22.8212 16.5992 24.7585 16.5167 25.88 16.4341 27.0015 14.061 26.6843 13.8871 28.1358c-.1173.9758 2.0482 1.191 1.9657 2.3537s-1.6461.9499-1.5778 2.0766C14.3305 33.4799 16.0397 32.878 16.4973 34.4145 16.9536 35.951 27.2734 15.6234 27.2734 15.6234H27.2721z" fill="#ef6122"/><path d="M9.00267 42.892c.125-3.7587 2.74813-4.5927 4.65323-3.9508 1.904.6419 1.7982 2.8552 1.3174 3.6879C14.2051 43.958 13.0772 43.3844 13.4987 42.4537 13.8106 41.5605 13.8687 40.3205 12.3928 40.7149 10.5585 41.206 11.1295 46.1377 14.9914 45.1684 17.6364 44.5046 17.4288 41.7035 17.2188 37.6187 16.6555 33.6666 17.2652 28.4848 18.946 23.566c3.4056-9.9665 23.92-13.2058 30.7299-3.9869C58.5223 31.5539 48.7671 43.2503 47.2667 44.7443c-4.6739 3.6273-3.916 6.9091-7.2649 7.1269C36.8193 52.0787 37.081 48.8447 34.976 48.6642 34.8523 48.6642 34.7286 48.6642 34.6048 48.6616 32.1338 48.8434 31.6569 51.9253 27.9303 51.8712 24.8935 51.8274 26.2457 49.1746 24.2168 47.9024 23.7914 47.7013 23.4227 47.5596 23.0824 47.4667 22.8143 47.41 22.5166 47.3688 22.1801 47.3481 22.1028 47.343 21.6349 47.3455 21.4982 47.3455 20.293 47.3674 19.5699 47.6523 16.8463 48.2066 11.939 49.2043 8.89695 46.072 9.00267 42.892z" fill="#fac20c" stroke="#3a1103" stroke-width=".672982" stroke-miterlimit="10"/><path d="M22.3987 18.1675c6.9761-4.9421 15.0955-2.243 16.1331-1.5572C39.5695 17.2961 41.0402 16.4814 40.214 14.4228 37.4452 7.52932 30.3015 4.02322 28.3783 5.21034 26.2283 6.53799 28.9326 12.4597 27.5276 13.848c-1.1279 1.1137-1.8961.2629-3.8141-.3803C21.9811 12.8864 22.3987 18.1675 22.3987 18.1675z" fill="#ef6122"/><path d="M32.8458 31.6691H51.9592c2.29649999999999.0 4.1583-1.8618 4.1583-4.1584V27.5094c0-2.2966-1.8618-4.1583-4.1583-4.1583H32.8458c-2.2966.0-4.1583 1.8617-4.1583 4.1583V27.5107c0 2.2966 1.8617 4.1584 4.1583 4.1584z" fill="#5545ef" stroke="#231735" stroke-width=".672982" stroke-miterlimit="10"/><path d="M37.2516 30.2674H51.7554c1.5236.0 2.7585-1.235 2.7585-2.7585.0-1.5234-1.2349-2.7584-2.7585-2.7584H37.2516c-1.5234.0-2.7584 1.235-2.7584 2.7584.0 1.5235 1.235 2.7585 2.7584 2.7585z" fill="#19052d"/><path d="M36.4307 27.9029l1.3714-1.2723C38.0251 26.423 38.386 26.4244 38.609 26.6306L39.6789 27.6282C39.902 27.8358 40.2628 27.8358 40.4858 27.6282L40.607 27.5161C40.83 27.3086 41.1909 27.3099 41.4139 27.5161l1.4785 1.3793C43.1154 29.1029 43.4763 29.1029 43.6993 28.8954l2.5072-2.3267C46.4295 26.3612 46.7903 26.3625 47.0133 26.5687L47.7713 27.2751C47.9943 27.4827 48.3552 27.4827 48.5781 27.2751 48.8011 27.0676 49.1621 27.0689 49.3851 27.2751L50.2745 28.1052C50.4975 28.3128 50.8584 28.3128 51.0814 28.1052l1.6667-1.5455" stroke="#fff" stroke-width=".697209" stroke-miterlimit="10" stroke-linecap="round"/><path d="M31.1494 41.7535C29.3512 43.3879 27.3043 43.9925 26.1597 42.5939 24.8951 41.0484 26.032 39.2579 27.6896 37.7446" fill="#f99f10"/><path d="M31.1494 41.7535C29.3512 43.3879 27.3043 43.9925 26.1597 42.5939 24.8951 41.0484 26.032 39.2579 27.6896 37.7446" stroke="#3a1103" stroke-width=".672982" stroke-miterlimit="10" stroke-linecap="round"/><path d="M24.8704 14.2386c-3.5163-1.6551-6.9464-2.5329-7.8551-1.0893C16.0331 14.7103 19.3818 18.0256 18.6343 19.8561 17.9356 21.5678 13.99 20.0983 13.7335 22.0151c-.2051 1.534 2.8654 2.7405 2.783 3.8618C16.4339 26.9984 14.0312 26.5408 13.8559 27.9935c-.1173.9758 2.0791 1.3303 1.9954 2.4929C15.7688 31.6491 14.2735 31.4352 14.2735 32.563c0 .9178 2.6799.996399999999994 2.7559 2.9054" stroke="#3a1103" stroke-width=".672982" stroke-miterlimit="10"/><path d="M38.5299 16.6097C39.5676 17.2954 41.0383 16.4807 40.2121 14.4223 37.4433 7.52862 30.511 4.00968 28.3765 5.20976 26.1362 6.46907 28.9308 12.4591 27.5257 13.8474c-.7849.7759-1.8162.7424-2.7611.3454" stroke="#3a1103" stroke-width=".672982" stroke-miterlimit="10"/><path d="M38.5721 16.6411c-3.7317-2.212-10.3301-2.3293-16.1834 2.0482" stroke="#3a1103" stroke-width=".672982" stroke-miterlimit="10"/><path d="M36.2948 35.7864C36.2368 33.9999 36.8298 32.8746 38.7323 33.5874 40.6349 34.3003 43.8445 34.598 45.3294 34.4795 46.8157 34.3608 47.5285 34.1817 47.5285 34.8958c0 .713999999999999-1.3071 1.1291-1.4269 2.8525C45.983 39.4717 44.4375 40.6009 40.5151 40.0066 36.5926 39.4124 36.3541 37.6297 36.2948 35.7864z" fill="#000"/><path d="M41.911 35.0773C43.8769 35.2268 45.0008 35.054 45.0253 35.1946 45.0498 35.335 45.1658 36.6459 44.0882 36.6923 43.0106 36.7388 42.8714 35.8957 42.8714 35.8957S42.8481 36.6679 41.8183 36.6215C40.7884 36.575 40.6015 35.5451 40.6015 35.5451S40.4842 36.1768 39.5251 36.0362C38.5648 35.8957 38.6821 34.5616 38.753 34.4675 38.824 34.3734 39.7597 34.9122 41.9137 35.076L41.911 35.0773z" fill="#fff"/></g><defs><clipPath id="clip0_7838_654"><rect width="64" height="64" fill="#fff"/></clipPath></defs></svg>

<svg xmlns="http://www.w3.org/2000/svg" fill="none" viewBox="0 0 64 64"><g clip-path="url(#a)"><path fill="#f4f4f6" d="M32 64c17.673 0 32-14.327 32-32C64 14.327 49.673 0 32 0 14.327 0 0 14.327 0 32s14.327 32 32 32z"/><path fill="#080821" d="M30.423 54.041c9.417 0 17.05-.896 17.05-2.002s-7.633-2.001-17.05-2.001c-9.417 0-17.05.896-17.05 2.001s7.633 2.002 17.05 2.002z" opacity=".1"/><path fill="#f99f10" d="M52.317 34.711c1.27-.799 3.478-1.85 4.529 0 1.05 1.85-3.498 5.592-6.855 6.362"/><path stroke="#3a1103" stroke-linecap="round" stroke-miterlimit="10" stroke-width=".673" d="M52.317 34.711c1.27-.799 3.478-1.85 4.529 0 1.05 1.85-3.498 5.592-6.855 6.362"/><path fill="#ef6122" d="M27.272 15.623c-4.095-2.855-9.335-3.495-10.257-2.47-.747.83 2.077 5.377 1.62 6.706-.457 1.33-4.463.47-4.901 2.16-.208.802 2.865 2.74 2.783 3.861-.083 1.122-2.456.804-2.63 2.256-.117.976 2.048 1.19 1.966 2.354s-1.646.95-1.578 2.076c.056.914 1.765.312 2.222 1.848.457 1.537 10.776-18.79 10.776-18.79z"/><path fill="#fac20c" stroke="#3a1103" stroke-miterlimit="10" stroke-width=".673" d="M9.003 42.892c.125-3.759 2.748-4.593 4.653-3.95 1.904.641 1.798 2.854 1.317 3.687-.768 1.329-1.896.755-1.474-.175.312-.894.37-2.133-1.106-1.74-1.835.492-1.264 5.424 2.598 4.454 2.645-.663 2.438-3.465 2.228-7.55-.564-3.951.046-9.133 1.727-14.052 3.406-9.966 23.92-13.206 30.73-3.987 8.846 11.975-.909 23.671-2.41 25.165-4.673 3.628-3.915 6.91-7.264 7.127-3.183.208-2.921-3.026-5.026-3.207-.124 0-.247 0-.371-.002-2.471.181-2.948 3.263-6.675 3.21-3.037-.045-1.684-2.697-3.713-3.97a6.959 6.959 0 0 0-1.135-.435 6.18 6.18 0 0 0-.902-.119c-.077-.005-.545-.002-.682-.002-1.205.021-1.928.306-4.652.86-4.907.998-7.949-2.134-7.843-5.314z"/><path fill="#ef6122" d="M22.399 18.168c6.976-4.943 15.095-2.243 16.133-1.558 1.038.686 2.508-.129 1.682-2.187-2.769-6.894-9.912-10.4-11.836-9.213-2.15 1.328.555 7.25-.85 8.638-1.128 1.114-1.896.263-3.814-.38-1.733-.582-1.315 4.7-1.315 4.7z"/><path fill="#5545ef" stroke="#231735" stroke-miterlimit="10" stroke-width=".673" d="M32.846 31.67h19.113a4.158 4.158 0 0 0 0-8.318H32.846a4.158 4.158 0 0 0-4.158 4.157v.002a4.158 4.158 0 0 0 4.158 4.158z"/><path fill="#19052d" d="M37.252 30.267h14.503a2.758 2.758 0 1 0 0-5.517H37.252a2.758 2.758 0 0 0 0 5.517z"/><path stroke="#fff" stroke-linecap="round" stroke-miterlimit="10" stroke-width=".697" d="m36.43 27.903 1.372-1.272a.602.602 0 0 1 .807 0l1.07.997a.6.6 0 0 0 .807 0l.121-.112a.602.602 0 0 1 .807 0l1.478 1.38a.6.6 0 0 0 .807 0l2.508-2.327a.602.602 0 0 1 .806 0l.758.706a.6.6 0 0 0 .807 0 .602.602 0 0 1 .807 0l.89.83a.6.6 0 0 0 .806 0l1.667-1.545"/><path fill="#f99f10" d="M31.15 41.754c-1.799 1.634-3.846 2.239-4.99.84-1.265-1.546-.128-3.336 1.53-4.85"/><path stroke="#3a1103" stroke-linecap="round" stroke-miterlimit="10" stroke-width=".673" d="M31.15 41.754c-1.799 1.634-3.846 2.239-4.99.84-1.265-1.546-.128-3.336 1.53-4.85"/><path stroke="#3a1103" stroke-miterlimit="10" stroke-width=".673" d="M24.87 14.239c-3.516-1.656-6.946-2.533-7.855-1.09-.982 1.561 2.367 4.877 1.62 6.707-.7 1.712-4.645.242-4.902 2.16-.205 1.533 2.866 2.74 2.783 3.86-.082 1.122-2.485.665-2.66 2.117-.117.976 2.079 1.33 1.995 2.493-.082 1.163-1.578.95-1.578 2.077 0 .918 2.68.996 2.756 2.905"/><path stroke="#3a1103" stroke-miterlimit="10" stroke-width=".673" d="M38.53 16.61c1.038.685 2.508-.13 1.682-2.188C37.443 7.53 30.511 4.01 28.376 5.21c-2.24 1.26.555 7.25-.85 8.637-.785.776-1.816.743-2.761.346"/><path stroke="#3a1103" stroke-miterlimit="10" stroke-width=".673" d="M38.572 16.641c-3.732-2.212-10.33-2.33-16.183 2.048"/><path fill="#000" d="M36.295 35.786c-.058-1.786.535-2.911 2.437-2.199 1.903.713 5.112 1.011 6.597.892 1.487-.118 2.2-.297 2.2.417s-1.308 1.129-1.427 2.852c-.119 1.724-1.664 2.853-5.587 2.259-3.922-.595-4.16-2.377-4.22-4.22z"/><path fill="#fff" d="M41.911 35.077c1.966.15 3.09-.023 3.114.118.025.14.14 1.45-.937 1.497-1.077.047-1.217-.796-1.217-.796s-.023.772-1.053.725c-1.03-.046-1.216-1.076-1.216-1.076s-.118.632-1.077.491c-.96-.14-.843-1.474-.772-1.569.071-.094 1.007.445 3.16.609l-.002.001z"/></g><defs><clipPath id="a"><path fill="#fff" d="M0 0h64v64H0z"/></clipPath></defs></svg>
